Simply-Purple-Circles/scalable/apps/hb-icon.svg

<svg xmlns="http://www.w3.org/2000/svg" width="48" height="48" viewBox="0 0 12.7 12.7"><path fill="#963996" d="M6.344.073a6.29 6.29 0 0 0-6.29 6.29 6.29 6.29 0 0 0 6.29 6.288 6.29 6.29 0 0 0 6.29-6.289 6.29 6.29 0 0 0-6.29-6.29zm-.018.936a5.407 5.407 0 0 1 4.491 2.404.246.246 0 0 0-.117-.025c-1.02-.02-1.664.814-1.664.814-.306-.407-.953-.624-1.35-.723-.181-.046-.2-.003-.074.108l.012.011c.02.002.036.005.062.011.397.1 1.044.316 1.35.723 0 0 .644-.833 1.664-.814.041 0 .073.007.097.014.038-.028.05-.054.05-.077a5.407 5.407 0 0 1 .419.779 1.959 1.959 0 0 0-1.02-.293 1.608 1.608 0 0 0-.64.124.94.94 0 0 0-.014.136s.815-.404 1.754.212a5.407 5.407 0 0 1 .387 2.003 5.407 5.407 0 0 1-5.407 5.407A5.407 5.407 0 0 1 .92 6.416 5.407 5.407 0 0 1 6.326 1.01zm.576 2.713l-5.181.012 2.267 3.36v2.61h-.972v.26h2.591v-.26h-.972V7.11l2.267-3.389zm.475.171c-.171-.007-.183.052-.08.134a.494.494 0 0 1 .08-.003c.185.008.437.048.74.167 0 0-.015-.058-.046-.146a2.279 2.279 0 0 0-.694-.152zm.693.872a2.437 2.757 44.855 0 0-.678.12l.107.15c.064.091.205.121.317.07l.401-.189a.183.183 0 0 0 .111-.15 2.437 2.757 44.855 0 0-.258 0zm.789.092a.157.157 0 0 0-.01.196l.232.326c.064.09.205.121.316.07l.3-.142a2.437 2.757 44.855 0 0-.838-.45zm-1.682.102a2.437 2.757 44.855 0 0-.76.44l.078.109c.064.09.205.12.316.068l.402-.189c.111-.052.15-.167.085-.257l-.121-.171zm1.243.096a.267.267 0 0 0-.088.024l-.4.188c-.112.052-.15.167-.086.257l.231.327c.064.09.205.12.316.069l.402-.19c.111-.051.15-.166.085-.256l-.23-.327a.23.23 0 0 0-.141-.087.293.293 0 0 0-.09-.005zm1.43.397l-.337.159c-.112.052-.15.167-.085.257l.231.326c.064.09.205.121.317.07l.308-.146a2.437 2.757 44.855 0 0-.434-.665zm-2.434.074a.27.27 0 0 0-.087.025l-.402.189c-.111.052-.149.166-.085.257l.231.325c.065.09.206.122.317.07l.401-.19c.111-.052.15-.166.086-.257l-.232-.326a.229.229 0 0 0-.14-.088.29.29 0 0 0-.089-.005zm-1.165.014a2.437 2.757 44.855 0 0-.45.509l.007-.002.401-.188c.112-.053.15-.167.086-.258L6.25 5.54zm2.747.33a.273.273 0 0 0-.087.024l-.402.189c-.111.052-.149.167-.085.257l.231.326c.064.09.205.121.317.069l.402-.19c.11-.051.148-.166.084-.256l-.23-.327a.23.23 0 0 0-.141-.087.29.29 0 0 0-.089-.005zm-2.585.127a.273.273 0 0 0-.088.025l-.401.188c-.112.052-.15.167-.086.257l.232.326c.064.09.205.12.316.069l.402-.189c.11-.052.149-.167.085-.257l-.232-.325a.232.232 0 0 0-.14-.089.29.29 0 0 0-.088-.005zm3.939.307l-.26.122c-.112.053-.15.168-.086.258l.232.326a.248.248 0 0 0 .226.092 2.437 2.757 44.855 0 0-.112-.798zm-2.358.037a.27.27 0 0 0-.086.024l-.402.189c-.111.052-.15.167-.085.257l.23.326c.065.09.206.12.318.068l.4-.188c.112-.052.15-.167.086-.257l-.231-.327a.23.23 0 0 0-.14-.088.293.293 0 0 0-.09-.004zm-2.45.151a2.437 2.757 44.855 0 0-.138.335 2.437 2.757 44.855 0 0-.117.53.27.27 0 0 0 .094-.024l.401-.188c.111-.052.15-.167.085-.258l-.231-.326a.217.217 0 0 0-.095-.069zm4.033.192a.274.274 0 0 0-.088.024l-.402.189c-.11.052-.149.166-.084.257l.231.326c.064.09.205.122.316.07l.402-.19c.112-.052.15-.167.085-.257l-.232-.327a.23.23 0 0 0-.14-.087.293.293 0 0 0-.088-.005zm-2.586.128a.273.273 0 0 0-.088.024l-.401.188c-.111.053-.149.167-.085.258l.232.326c.064.09.205.121.316.07l.401-.19c.112-.052.15-.167.085-.257l-.231-.327a.231.231 0 0 0-.14-.087.287.287 0 0 0-.089-.005zm1.582.344a.275.275 0 0 0-.088.023l-.4.19c-.112.052-.15.166-.086.256l.231.326c.064.09.206.12.317.069l.401-.188c.112-.053.15-.167.086-.258l-.232-.326a.23.23 0 0 0-.14-.088.29.29 0 0 0-.089-.004zm-2.586.128a.268.268 0 0 0-.087.024l-.402.188c-.11.052-.149.167-.085.258l.232.326c.064.09.205.12.316.068l.402-.188c.112-.053.15-.167.085-.258l-.23-.325a.23.23 0 0 0-.141-.088h-.001a.29.29 0 0 0-.089-.005zm4.168.215a.268.268 0 0 0-.087.025l-.402.188c-.111.052-.15.167-.085.257l.232.326c.063.09.201.12.312.07a2.437 2.757 44.855 0 0 .204-.47 2.437 2.757 44.855 0 0 .073-.278l-.017-.025a.231.231 0 0 0-.14-.088h-.001a.293.293 0 0 0-.09-.005zm-2.586.128a.267.267 0 0 0-.087.024l-.401.188c-.112.053-.15.167-.086.258l.231.326c.065.09.206.121.317.069l.401-.189c.111-.052.15-.167.085-.257L7.8 7.72a.232.232 0 0 0-.14-.088h-.001a.293.293 0 0 0-.089-.005zm-2.286.32a2.437 2.757 44.855 0 0 .098.468c.092-.057.122-.158.063-.241l-.16-.227zm3.868.024a.274.274 0 0 0-.087.024l-.402.188c-.111.053-.149.168-.085.258l.232.326c.064.09.205.12.316.068l.402-.188c.111-.053.149-.168.085-.258l-.232-.326a.23.23 0 0 0-.14-.087.287.287 0 0 0-.089-.005zm-2.586.127a.27.27 0 0 0-.087.025l-.401.188c-.112.052-.15.167-.085.257l.23.327c.065.09.206.12.318.068l.401-.188c.111-.053.149-.167.085-.258l-.231-.325a.229.229 0 0 0-.14-.089h-.001a.29.29 0 0 0-.089-.005zm1.583.344a.272.272 0 0 0-.088.024l-.401.189c-.111.052-.15.167-.085.257l.23.326c.065.09.206.121.317.069l.402-.189c.111-.052.15-.167.085-.257l-.231-.326a.23.23 0 0 0-.14-.088.29.29 0 0 0-.09-.005zm-2.586.128a.274.274 0 0 0-.087.024l-.025.012a2.437 2.757 44.855 0 0 .434.665l.053-.025c.111-.052.15-.167.085-.257l-.23-.326a.228.228 0 0 0-.141-.088.29.29 0 0 0-.089-.005zm4.168.216a.265.265 0 0 0-.087.024L9.24 9c-.111.052-.15.167-.085.257l.089.126A2.437 2.757 44.855 0 0 9.84 8.8l-.021-.01a.293.293 0 0 0-.09-.004zm-2.586.128a.267.267 0 0 0-.087.024l-.402.189c-.11.052-.15.167-.085.257l.231.326c.064.09.206.12.317.069l.4-.19c.112-.052.15-.166.086-.257l-.23-.326a.23.23 0 0 0-.141-.087.293.293 0 0 0-.09-.005zm1.582.343a.27.27 0 0 0-.088.024l-.401.19c-.112.051-.15.166-.085.257l.1.14a2.437 2.757 44.855 0 0 .813-.364l-.11-.154a.23.23 0 0 0-.14-.088h-.001a.287.287 0 0 0-.088-.005zm-2.586.128a.273.273 0 0 0-.087.025l-.016.007a2.437 2.757 44.855 0 0 .53.34l-.198-.279a.23.23 0 0 0-.14-.088.29.29 0 0 0-.089-.005zm1.583.344a.276.276 0 0 0-.088.024l-.401.189-.002.001a2.437 2.757 44.855 0 0 .789-.024l-.069-.098a.232.232 0 0 0-.14-.088H7.81a.29.29 0 0 0-.088-.004z"/></svg>

<?xml version="1.0" encoding="UTF-8" standalone="no"?>
<svg
   xmlns:dc="http://purl.org/dc/elements/1.1/"
   xmlns:cc="http://creativecommons.org/ns#"
   xmlns:rdf="http://www.w3.org/1999/02/22-rdf-syntax-ns#"
   xmlns:svg="http://www.w3.org/2000/svg"
   xmlns="http://www.w3.org/2000/svg"
   xmlns:sodipodi="http://sodipodi.sourceforge.net/DTD/sodipodi-0.dtd"
   xmlns:inkscape="http://www.inkscape.org/namespaces/inkscape"
   width="48"
   height="48"
   viewBox="0 0 12.7 12.7"
   version="1.1"
   id="svg4"
   sodipodi:docname="hb-icon.svg"
   inkscape:version="0.92.4 (5da689c313, 2019-01-14)">
  <metadata
     id="metadata10">
    <rdf:RDF>
      <cc:Work
         rdf:about="">
        <dc:format>image/svg+xml</dc:format>
        <dc:type
           rdf:resource="http://purl.org/dc/dcmitype/StillImage" />
        <dc:title></dc:title>
      </cc:Work>
    </rdf:RDF>
  </metadata>
  <defs
     id="defs8" />
  <sodipodi:namedview
     pagecolor="#ffffff"
     bordercolor="#666666"
     borderopacity="1"
     objecttolerance="10"
     gridtolerance="10"
     guidetolerance="10"
     inkscape:pageopacity="0"
     inkscape:pageshadow="2"
     inkscape:window-width="1087"
     inkscape:window-height="480"
     id="namedview6"
     showgrid="false"
     inkscape:zoom="4.9166667"
     inkscape:cx="2.1355932"
     inkscape:cy="24"
     inkscape:window-x="0"
     inkscape:window-y="25"
     inkscape:window-maximized="0"
     inkscape:current-layer="svg4" />
  <path
     d="m 6.344,0.073 a 6.29,6.29 0 0 0 -6.29,6.29 6.29,6.29 0 0 0 6.29,6.288 6.29,6.29 0 0 0 6.29,-6.289 6.29,6.29 0 0 0 -6.29,-6.29 z M 6.326,1.009 A 5.407,5.407 0 0 1 10.817,3.413 0.246,0.246 0 0 0 10.7,3.388 C 9.68,3.368 9.036,4.202 9.036,4.202 8.73,3.795 8.083,3.578 7.686,3.479 7.505,3.433 7.486,3.476 7.612,3.587 l 0.012,0.011 c 0.02,0.002 0.036,0.005 0.062,0.011 0.397,0.1 1.044,0.316 1.35,0.723 0,0 0.644,-0.833 1.664,-0.814 0.041,0 0.073,0.007 0.097,0.014 0.038,-0.028 0.05,-0.054 0.05,-0.077 a 5.407,5.407 0 0 1 0.419,0.779 1.959,1.959 0 0 0 -1.02,-0.293 1.608,1.608 0 0 0 -0.64,0.124 0.94,0.94 0 0 0 -0.014,0.136 c 0,0 0.815,-0.404 1.754,0.212 A 5.407,5.407 0 0 1 11.733,6.416 5.407,5.407 0 0 1 6.326,11.823 5.407,5.407 0 0 1 0.92,6.416 5.407,5.407 0 0 1 6.326,1.01 Z m 0.576,2.713 -5.181,0.012 2.267,3.36 v 2.61 H 3.016 v 0.26 H 5.607 V 9.704 H 4.635 V 7.11 L 6.902,3.721 Z M 7.377,3.893 C 7.206,3.886 7.194,3.945 7.297,4.027 a 0.494,0.494 0 0 1 0.08,-0.003 c 0.185,0.008 0.437,0.048 0.74,0.167 0,0 -0.015,-0.058 -0.046,-0.146 A 2.279,2.279 0 0 0 7.377,3.893 Z M 8.07,4.765 a 2.437,2.757 44.855 0 0 -0.678,0.12 l 0.107,0.15 c 0.064,0.091 0.205,0.121 0.317,0.07 L 8.217,4.916 a 0.183,0.183 0 0 0 0.111,-0.15 2.437,2.757 44.855 0 0 -0.258,0 z m 0.789,0.092 a 0.157,0.157 0 0 0 -0.01,0.196 l 0.232,0.326 c 0.064,0.09 0.205,0.121 0.316,0.07 l 0.3,-0.142 A 2.437,2.757 44.855 0 0 8.859,4.857 Z M 7.177,4.959 a 2.437,2.757 44.855 0 0 -0.76,0.44 L 6.495,5.508 C 6.559,5.598 6.7,5.628 6.811,5.576 L 7.213,5.387 C 7.324,5.335 7.363,5.22 7.298,5.13 Z M 8.42,5.055 A 0.267,0.267 0 0 0 8.332,5.079 l -0.4,0.188 C 7.82,5.319 7.782,5.434 7.846,5.524 l 0.231,0.327 c 0.064,0.09 0.205,0.12 0.316,0.069 L 8.795,5.73 C 8.906,5.679 8.945,5.564 8.88,5.474 L 8.65,5.147 A 0.23,0.23 0 0 0 8.509,5.06 0.293,0.293 0 0 0 8.419,5.055 Z M 9.85,5.452 9.513,5.611 C 9.401,5.663 9.363,5.778 9.428,5.868 l 0.231,0.326 c 0.064,0.09 0.205,0.121 0.317,0.07 L 10.284,6.118 A 2.437,2.757 44.855 0 0 9.85,5.453 Z M 7.416,5.526 A 0.27,0.27 0 0 0 7.329,5.551 L 6.927,5.74 C 6.816,5.792 6.778,5.906 6.842,5.997 l 0.231,0.325 c 0.065,0.09 0.206,0.122 0.317,0.07 L 7.791,6.202 C 7.902,6.15 7.941,6.036 7.877,5.945 L 7.645,5.619 A 0.229,0.229 0 0 0 7.505,5.531 0.29,0.29 0 0 0 7.416,5.526 Z M 6.251,5.54 A 2.437,2.757 44.855 0 0 5.801,6.049 L 5.808,6.047 6.209,5.859 C 6.321,5.806 6.359,5.692 6.295,5.601 L 6.25,5.54 Z M 8.998,5.87 A 0.273,0.273 0 0 0 8.911,5.894 L 8.509,6.083 C 8.398,6.135 8.36,6.25 8.424,6.34 L 8.655,6.666 C 8.719,6.756 8.86,6.787 8.972,6.735 L 9.374,6.545 C 9.484,6.494 9.522,6.379 9.458,6.289 L 9.228,5.962 A 0.23,0.23 0 0 0 9.087,5.875 0.29,0.29 0 0 0 8.998,5.87 Z M 6.413,5.997 A 0.273,0.273 0 0 0 6.325,6.022 L 5.924,6.21 C 5.812,6.262 5.774,6.377 5.838,6.467 L 6.07,6.793 c 0.064,0.09 0.205,0.12 0.316,0.069 L 6.788,6.673 C 6.898,6.621 6.937,6.506 6.873,6.416 L 6.641,6.091 A 0.232,0.232 0 0 0 6.501,6.002 0.29,0.29 0 0 0 6.413,5.997 Z m 3.939,0.307 -0.26,0.122 C 9.98,6.479 9.942,6.594 10.006,6.684 L 10.238,7.01 A 0.248,0.248 0 0 0 10.464,7.102 2.437,2.757 44.855 0 0 10.352,6.304 Z M 7.994,6.341 A 0.27,0.27 0 0 0 7.908,6.365 L 7.506,6.554 C 7.395,6.606 7.356,6.721 7.421,6.811 l 0.23,0.326 c 0.065,0.09 0.206,0.12 0.318,0.068 l 0.4,-0.188 C 8.481,6.965 8.519,6.85 8.455,6.76 L 8.224,6.433 A 0.23,0.23 0 0 0 8.084,6.345 0.293,0.293 0 0 0 7.994,6.341 Z M 5.544,6.492 A 2.437,2.757 44.855 0 0 5.406,6.827 2.437,2.757 44.855 0 0 5.289,7.357 0.27,0.27 0 0 0 5.383,7.333 L 5.784,7.145 C 5.895,7.093 5.934,6.978 5.869,6.887 L 5.638,6.561 A 0.217,0.217 0 0 0 5.543,6.492 Z M 9.577,6.684 A 0.274,0.274 0 0 0 9.489,6.708 L 9.087,6.897 C 8.977,6.949 8.938,7.063 9.003,7.154 L 9.234,7.48 C 9.298,7.57 9.439,7.602 9.55,7.55 L 9.952,7.36 c 0.112,-0.052 0.15,-0.167 0.085,-0.257 L 9.805,6.776 A 0.23,0.23 0 0 0 9.665,6.689 0.293,0.293 0 0 0 9.577,6.684 Z M 6.991,6.812 A 0.273,0.273 0 0 0 6.903,6.836 L 6.502,7.024 C 6.391,7.077 6.353,7.191 6.417,7.282 l 0.232,0.326 c 0.064,0.09 0.205,0.121 0.316,0.07 L 7.366,7.488 C 7.478,7.436 7.516,7.321 7.451,7.231 L 7.22,6.904 A 0.231,0.231 0 0 0 7.08,6.817 0.287,0.287 0 0 0 6.991,6.812 Z M 8.573,7.156 A 0.275,0.275 0 0 0 8.485,7.179 l -0.4,0.19 C 7.973,7.421 7.935,7.535 7.999,7.625 L 8.23,7.951 c 0.064,0.09 0.206,0.12 0.317,0.069 L 8.948,7.832 C 9.06,7.779 9.098,7.665 9.034,7.574 L 8.802,7.248 A 0.23,0.23 0 0 0 8.662,7.16 0.29,0.29 0 0 0 8.573,7.156 Z M 5.987,7.284 A 0.268,0.268 0 0 0 5.9,7.308 L 5.498,7.496 C 5.388,7.548 5.349,7.663 5.413,7.754 L 5.645,8.08 C 5.709,8.17 5.85,8.2 5.961,8.148 L 6.363,7.96 C 6.475,7.907 6.513,7.793 6.448,7.702 L 6.218,7.377 A 0.23,0.23 0 0 0 6.077,7.289 H 6.076 A 0.29,0.29 0 0 0 5.987,7.284 Z m 4.168,0.215 A 0.268,0.268 0 0 0 10.068,7.524 L 9.666,7.712 C 9.555,7.764 9.516,7.879 9.581,7.969 l 0.232,0.326 c 0.063,0.09 0.201,0.12 0.312,0.07 a 2.437,2.757 44.855 0 0 0.204,-0.47 2.437,2.757 44.855 0 0 0.073,-0.278 L 10.385,7.592 A 0.231,0.231 0 0 0 10.245,7.504 H 10.244 A 0.293,0.293 0 0 0 10.154,7.499 Z M 7.569,7.627 A 0.267,0.267 0 0 0 7.482,7.651 L 7.081,7.839 C 6.969,7.892 6.931,8.006 6.995,8.097 l 0.231,0.326 c 0.065,0.09 0.206,0.121 0.317,0.069 L 7.944,8.303 C 8.055,8.251 8.094,8.136 8.029,8.046 L 7.8,7.72 A 0.232,0.232 0 0 0 7.66,7.632 H 7.659 A 0.293,0.293 0 0 0 7.57,7.627 Z M 5.283,7.947 A 2.437,2.757 44.855 0 0 5.381,8.415 C 5.473,8.358 5.503,8.257 5.444,8.174 L 5.284,7.947 Z M 9.151,7.971 A 0.274,0.274 0 0 0 9.064,7.995 L 8.662,8.183 C 8.551,8.236 8.513,8.351 8.577,8.441 l 0.232,0.326 c 0.064,0.09 0.205,0.12 0.316,0.068 L 9.527,8.647 C 9.638,8.594 9.676,8.479 9.612,8.389 L 9.38,8.063 A 0.23,0.23 0 0 0 9.24,7.976 0.287,0.287 0 0 0 9.151,7.971 Z M 6.565,8.098 A 0.27,0.27 0 0 0 6.478,8.123 L 6.077,8.311 C 5.965,8.363 5.927,8.478 5.992,8.568 l 0.23,0.327 c 0.065,0.09 0.206,0.12 0.318,0.068 L 6.941,8.775 C 7.052,8.722 7.09,8.608 7.026,8.517 L 6.795,8.192 A 0.229,0.229 0 0 0 6.655,8.103 H 6.654 A 0.29,0.29 0 0 0 6.565,8.098 Z M 8.148,8.442 A 0.272,0.272 0 0 0 8.06,8.466 L 7.659,8.655 C 7.548,8.707 7.509,8.822 7.574,8.912 l 0.23,0.326 C 7.869,9.328 8.01,9.359 8.121,9.307 L 8.523,9.118 C 8.634,9.066 8.673,8.951 8.608,8.861 L 8.377,8.535 A 0.23,0.23 0 0 0 8.237,8.447 0.29,0.29 0 0 0 8.147,8.442 Z M 5.562,8.57 A 0.274,0.274 0 0 0 5.475,8.594 L 5.45,8.606 A 2.437,2.757 44.855 0 0 5.884,9.271 L 5.937,9.246 C 6.048,9.194 6.087,9.079 6.022,8.989 L 5.792,8.663 A 0.228,0.228 0 0 0 5.651,8.575 0.29,0.29 0 0 0 5.562,8.57 Z M 9.73,8.786 A 0.265,0.265 0 0 0 9.643,8.81 L 9.24,9 C 9.129,9.052 9.09,9.167 9.155,9.257 L 9.244,9.383 A 2.437,2.757 44.855 0 0 9.84,8.8 L 9.819,8.79 A 0.293,0.293 0 0 0 9.729,8.786 Z M 7.144,8.914 A 0.267,0.267 0 0 0 7.057,8.938 L 6.655,9.127 C 6.545,9.179 6.505,9.294 6.57,9.384 L 6.801,9.71 C 6.865,9.8 7.007,9.83 7.118,9.779 l 0.4,-0.19 C 7.63,9.537 7.668,9.423 7.604,9.332 L 7.374,9.006 A 0.23,0.23 0 0 0 7.233,8.919 0.293,0.293 0 0 0 7.143,8.914 Z M 8.726,9.257 A 0.27,0.27 0 0 0 8.638,9.281 L 8.237,9.471 C 8.125,9.522 8.087,9.637 8.152,9.728 l 0.1,0.14 A 2.437,2.757 44.855 0 0 9.065,9.504 L 8.955,9.35 A 0.23,0.23 0 0 0 8.815,9.262 H 8.814 A 0.287,0.287 0 0 0 8.726,9.257 Z M 6.14,9.385 A 0.273,0.273 0 0 0 6.053,9.41 L 6.037,9.417 a 2.437,2.757 44.855 0 0 0.53,0.34 L 6.369,9.478 A 0.23,0.23 0 0 0 6.229,9.39 0.29,0.29 0 0 0 6.14,9.385 Z M 7.723,9.729 A 0.276,0.276 0 0 0 7.635,9.753 L 7.234,9.942 7.232,9.943 A 2.437,2.757 44.855 0 0 8.021,9.919 L 7.952,9.821 A 0.232,0.232 0 0 0 7.812,9.733 H 7.81 A 0.29,0.29 0 0 0 7.722,9.729 Z"
     id="path2"
     inkscape:connector-curvature="0"
     style="fill:#963996" />
</svg>
